assets/landing/frontend_features/light/colors.svg

<svg xmlns="http://www.w3.org/2000/svg" width="326" height="240" fill="none" viewBox="0 0 326 240"><g clip-path="url(#a)"><g opacity=".8"><rect width="45" height="45" x="-3.5" y="-1.5" fill="#ACD8FC" rx="9.5"/><rect width="45" height="45" x="-3.5" y="-1.5" stroke="#FCFCFD" stroke-width="3" rx="9.5"/><rect width="45" height="45" x="44.5" y="-1.5" fill="#8EC8F6" rx="9.5"/><rect width="45" height="45" x="44.5" y="-1.5" stroke="#FCFCFD" stroke-width="3" rx="9.5"/><rect width="45" height="45" x="92.5" y="-1.5" fill="#5EB1EF" rx="9.5"/><rect width="45" height="45" x="92.5" y="-1.5" stroke="#FCFCFD" stroke-width="3" rx="9.5"/><rect width="45" height="45" x="140.5" y="-1.5" fill="#0090FF" rx="9.5"/><rect width="45" height="45" x="140.5" y="-1.5" stroke="#FCFCFD" stroke-width="3" rx="9.5"/><rect width="45" height="45" x="188.5" y="-1.5" fill="#0588F0" rx="9.5"/><rect width="45" height="45" x="188.5" y="-1.5" stroke="#FCFCFD" stroke-width="3" rx="9.5"/><rect width="45" height="45" x="236.5" y="-1.5" fill="#0D74CE" rx="9.5"/><rect width="45" height="45" x="236.5" y="-1.5" stroke="#FCFCFD" stroke-width="3" rx="9.5"/><rect width="45" height="45" x="284.5" y="-1.5" fill="#084982" rx="9.5"/><rect width="45" height="45" x="284.5" y="-1.5" stroke="#FCFCFD" stroke-width="3" rx="9.5"/><rect width="45" height="45" x="-3.5" y="46.5" fill="#A1DED2" rx="9.5"/><rect width="45" height="45" x="-3.5" y="46.5" stroke="#FCFCFD" stroke-width="3" rx="9.5"/><rect width="45" height="45" x="44.5" y="46.5" fill="#83CDC1" rx="9.5"/><rect width="45" height="45" x="44.5" y="46.5" stroke="#FCFCFD" stroke-width="3" rx="9.5"/><rect width="45" height="45" x="92.5" y="46.5" fill="#53B9AB" rx="9.5"/><rect width="45" height="45" x="92.5" y="46.5" stroke="#FCFCFD" stroke-width="3" rx="9.5"/><rect width="45" height="45" x="140.5" y="46.5" fill="#12A594" rx="9.5"/><rect width="45" height="45" x="140.5" y="46.5" stroke="#FCFCFD" stroke-width="3" rx="9.5"/><rect width="45" height="45" x="188.5" y="46.5" fill="#0D9B8A" rx="9.5"/><rect width="45" height="45" x="188.5" y="46.5" stroke="#FCFCFD" stroke-width="3" rx="9.5"/><rect width="45" height="45" x="236.5" y="46.5" fill="#008573" rx="9.5"/><rect width="45" height="45" x="236.5" y="46.5" stroke="#FCFCFD" stroke-width="3" rx="9.5"/><rect width="45" height="45" x="284.5" y="46.5" fill="#003D35" rx="9.5"/><rect width="45" height="45" x="284.5" y="46.5" stroke="#FCFCFD" stroke-width="3" rx="9.5"/><rect width="45" height="45" x="-3.5" y="94.5" fill="#FAF8FF" rx="9.5"/><rect width="45" height="45" x="-3.5" y="94.5" stroke="#FCFCFD" stroke-width="3" rx="9.5"/><rect width="45" height="45" x="44.5" y="94.5" fill="#C2B5F5" rx="9.5"/><rect width="45" height="45" x="44.5" y="94.5" stroke="#FCFCFD" stroke-width="3" rx="9.5"/><rect width="45" height="45" x="92.5" y="94.5" fill="#AA99EC" rx="9.5"/><rect width="45" height="45" x="92.5" y="94.5" stroke="#FCFCFD" stroke-width="3" rx="9.5"/><rect width="45" height="45" x="140.5" y="94.5" fill="#6E56CF" rx="9.5"/><rect width="45" height="45" x="140.5" y="94.5" stroke="#FCFCFD" stroke-width="3" rx="9.5"/><rect width="45" height="45" x="188.5" y="94.5" fill="#654DC4" rx="9.5"/><rect width="45" height="45" x="188.5" y="94.5" stroke="#FCFCFD" stroke-width="3" rx="9.5"/><rect width="45" height="45" x="236.5" y="94.5" fill="#6550B9" rx="9.5"/><rect width="45" height="45" x="236.5" y="94.5" stroke="#FCFCFD" stroke-width="3" rx="9.5"/><rect width="45" height="45" x="284.5" y="94.5" fill="#413182" rx="9.5"/><rect width="45" height="45" x="284.5" y="94.5" stroke="#FCFCFD" stroke-width="3" rx="9.5"/><rect width="45" height="45" x="-3.5" y="142.5" fill="#E0C4F4" rx="9.5"/><rect width="45" height="45" x="-3.5" y="142.5" stroke="#FCFCFD" stroke-width="3" rx="9.5"/><rect width="45" height="45" x="44.5" y="142.5" fill="#D1AFEC" rx="9.5"/><rect width="45" height="45" x="44.5" y="142.5" stroke="#FCFCFD" stroke-width="3" rx="9.5"/><rect width="45" height="45" x="92.5" y="142.5" fill="#BE93E4" rx="9.5"/><rect width="45" height="45" x="92.5" y="142.5" stroke="#FCFCFD" stroke-width="3" rx="9.5"/><rect width="45" height="45" x="140.5" y="142.5" fill="#8E4EC6" rx="9.5"/><rect width="45" height="45" x="140.5" y="142.5" stroke="#FCFCFD" stroke-width="3" rx="9.5"/><rect width="45" height="45" x="188.5" y="142.5" fill="#8347B9" rx="9.5"/><rect width="45" height="45" x="188.5" y="142.5" stroke="#FCFCFD" stroke-width="3" rx="9.5"/><rect width="45" height="45" x="236.5" y="142.5" fill="#8145B5" rx="9.5"/><rect width="45" height="45" x="236.5" y="142.5" stroke="#FCFCFD" stroke-width="3" rx="9.5"/><rect width="45" height="45" x="284.5" y="142.5" fill="#572E7A" rx="9.5"/><rect width="45" height="45" x="284.5" y="142.5" stroke="#FCFCFD" stroke-width="3" rx="9.5"/><rect width="45" height="45" x="-3.5" y="190.5" fill="#FFC182" rx="9.5"/><rect width="45" height="45" x="-3.5" y="190.5" stroke="#FCFCFD" stroke-width="3" rx="9.5"/><rect width="45" height="45" x="44.5" y="190.5" fill="#F5AE73" rx="9.5"/><rect width="45" height="45" x="44.5" y="190.5" stroke="#FCFCFD" stroke-width="3" rx="9.5"/><rect width="45" height="45" x="92.5" y="190.5" fill="#EC9455" rx="9.5"/><rect width="45" height="45" x="92.5" y="190.5" stroke="#FCFCFD" stroke-width="3" rx="9.5"/><rect width="45" height="45" x="140.5" y="190.5" fill="#F76B15" rx="9.5"/><rect width="45" height="45" x="140.5" y="190.5" stroke="#FCFCFD" stroke-width="3" rx="9.5"/><rect width="45" height="45" x="188.5" y="190.5" fill="#EF5F00" rx="9.5"/><rect width="45" height="45" x="188.5" y="190.5" stroke="#FCFCFD" stroke-width="3" rx="9.5"/><rect width="45" height="45" x="236.5" y="190.5" fill="#CC4E00" rx="9.5"/><rect width="45" height="45" x="236.5" y="190.5" stroke="#FCFCFD" stroke-width="3" rx="9.5"/><rect width="45" height="45" x="284.5" y="190.5" fill="#8A3500" rx="9.5"/><rect width="45" height="45" x="284.5" y="190.5" stroke="#FCFCFD" stroke-width="3" rx="9.5"/></g><path fill="url(#b)" d="M0 0h326v240H0z"/><path fill="url(#c)" d="M0 0h326v240H0z"/><rect width="42" height="42" x="142" y="96" fill="#6E56CF" rx="8"/><path fill="#FAF8FF" d="M164.677 113.586a.807.807 0 0 0-1.141-1.141l-7.048 7.047c-.632.631-1.105 1.104-1.36 1.718-.254.614-.254 1.283-.253 2.176v.932c0 .445.362.807.807.807h.932c.893.001 1.562.001 2.176-.253.614-.255 1.087-.728 1.718-1.36l7.047-7.048a.807.807 0 0 0-1.141-1.141l-1.97 1.969a.5.5 0 0 1-.154.127c-.046.019-.097.019-.199.019h-2.058c-.514 0-.771 0-.835-.154s.118-.336.481-.699zm.736-4.476a.803.803 0 1 0-1.136 1.136l5.477 5.477a.803.803 0 1 0 1.136-1.136l-.769-.768a.14.14 0 0 1 .001-.2l.024-.024.036-.036c.2-.2.351-.351.463-.508a2.29 2.29 0 0 0 0-2.653c-.112-.157-.263-.308-.463-.508l-.072-.072c-.2-.2-.351-.351-.508-.463a2.29 2.29 0 0 0-2.653 0c-.157.112-.308.263-.508.463l-.036.036-.024.024a.14.14 0 0 1-.2.001z"/></g><defs><radialGradient id="b" cx="0" cy="0" r="1" gradientTransform="matrix(313.5 0 0 219.738 163 120)" gradientUnits="userSpaceOnUse"><stop stop-color="#F9F9FB" stop-opacity="0"/><stop offset=".791" stop-color="#F9F9FB"/></radialGradient><linearGradient id="c" x1="163" x2="163" y1="-46" y2="240" gradientUnits="userSpaceOnUse"><stop stop-color="#F9F9FB" stop-opacity="0"/><stop offset=".98" stop-color="#F9F9FB"/></linearGradient><clipPath id="a"><path fill="#fff" d="M0 0h326v240H0z"/></clipPath></defs></svg>

<svg width="326" height="240" viewBox="0 0 326 240" fill="none" xmlns="http://www.w3.org/2000/svg">
<g clip-path="url(#clip0_10834_1096)">
<g opacity="0.8">
<rect x="-3.5" y="-1.5" width="45" height="45" rx="9.5" fill="#ACD8FC"/>
<rect x="-3.5" y="-1.5" width="45" height="45" rx="9.5" stroke="#FCFCFD" stroke-width="3"/>
<rect x="44.5" y="-1.5" width="45" height="45" rx="9.5" fill="#8EC8F6"/>
<rect x="44.5" y="-1.5" width="45" height="45" rx="9.5" stroke="#FCFCFD" stroke-width="3"/>
<rect x="92.5" y="-1.5" width="45" height="45" rx="9.5" fill="#5EB1EF"/>
<rect x="92.5" y="-1.5" width="45" height="45" rx="9.5" stroke="#FCFCFD" stroke-width="3"/>
<rect x="140.5" y="-1.5" width="45" height="45" rx="9.5" fill="#0090FF"/>
<rect x="140.5" y="-1.5" width="45" height="45" rx="9.5" stroke="#FCFCFD" stroke-width="3"/>
<rect x="188.5" y="-1.5" width="45" height="45" rx="9.5" fill="#0588F0"/>
<rect x="188.5" y="-1.5" width="45" height="45" rx="9.5" stroke="#FCFCFD" stroke-width="3"/>
<rect x="236.5" y="-1.5" width="45" height="45" rx="9.5" fill="#0D74CE"/>
<rect x="236.5" y="-1.5" width="45" height="45" rx="9.5" stroke="#FCFCFD" stroke-width="3"/>
<rect x="284.5" y="-1.5" width="45" height="45" rx="9.5" fill="#084982"/>
<rect x="284.5" y="-1.5" width="45" height="45" rx="9.5" stroke="#FCFCFD" stroke-width="3"/>
<rect x="-3.5" y="46.5" width="45" height="45" rx="9.5" fill="#A1DED2"/>
<rect x="-3.5" y="46.5" width="45" height="45" rx="9.5" stroke="#FCFCFD" stroke-width="3"/>
<rect x="44.5" y="46.5" width="45" height="45" rx="9.5" fill="#83CDC1"/>
<rect x="44.5" y="46.5" width="45" height="45" rx="9.5" stroke="#FCFCFD" stroke-width="3"/>
<rect x="92.5" y="46.5" width="45" height="45" rx="9.5" fill="#53B9AB"/>
<rect x="92.5" y="46.5" width="45" height="45" rx="9.5" stroke="#FCFCFD" stroke-width="3"/>
<rect x="140.5" y="46.5" width="45" height="45" rx="9.5" fill="#12A594"/>
<rect x="140.5" y="46.5" width="45" height="45" rx="9.5" stroke="#FCFCFD" stroke-width="3"/>
<rect x="188.5" y="46.5" width="45" height="45" rx="9.5" fill="#0D9B8A"/>
<rect x="188.5" y="46.5" width="45" height="45" rx="9.5" stroke="#FCFCFD" stroke-width="3"/>
<rect x="236.5" y="46.5" width="45" height="45" rx="9.5" fill="#008573"/>
<rect x="236.5" y="46.5" width="45" height="45" rx="9.5" stroke="#FCFCFD" stroke-width="3"/>
<rect x="284.5" y="46.5" width="45" height="45" rx="9.5" fill="#003D35"/>
<rect x="284.5" y="46.5" width="45" height="45" rx="9.5" stroke="#FCFCFD" stroke-width="3"/>
<rect x="-3.5" y="94.5" width="45" height="45" rx="9.5" fill="#FAF8FF"/>
<rect x="-3.5" y="94.5" width="45" height="45" rx="9.5" stroke="#FCFCFD" stroke-width="3"/>
<rect x="44.5" y="94.5" width="45" height="45" rx="9.5" fill="#C2B5F5"/>
<rect x="44.5" y="94.5" width="45" height="45" rx="9.5" stroke="#FCFCFD" stroke-width="3"/>
<rect x="92.5" y="94.5" width="45" height="45" rx="9.5" fill="#AA99EC"/>
<rect x="92.5" y="94.5" width="45" height="45" rx="9.5" stroke="#FCFCFD" stroke-width="3"/>
<rect x="140.5" y="94.5" width="45" height="45" rx="9.5" fill="#6E56CF"/>
<rect x="140.5" y="94.5" width="45" height="45" rx="9.5" stroke="#FCFCFD" stroke-width="3"/>
<rect x="188.5" y="94.5" width="45" height="45" rx="9.5" fill="#654DC4"/>
<rect x="188.5" y="94.5" width="45" height="45" rx="9.5" stroke="#FCFCFD" stroke-width="3"/>
<rect x="236.5" y="94.5" width="45" height="45" rx="9.5" fill="#6550B9"/>
<rect x="236.5" y="94.5" width="45" height="45" rx="9.5" stroke="#FCFCFD" stroke-width="3"/>
<rect x="284.5" y="94.5" width="45" height="45" rx="9.5" fill="#413182"/>
<rect x="284.5" y="94.5" width="45" height="45" rx="9.5" stroke="#FCFCFD" stroke-width="3"/>
<rect x="-3.5" y="142.5" width="45" height="45" rx="9.5" fill="#E0C4F4"/>
<rect x="-3.5" y="142.5" width="45" height="45" rx="9.5" stroke="#FCFCFD" stroke-width="3"/>
<rect x="44.5" y="142.5" width="45" height="45" rx="9.5" fill="#D1AFEC"/>
<rect x="44.5" y="142.5" width="45" height="45" rx="9.5" stroke="#FCFCFD" stroke-width="3"/>
<rect x="92.5" y="142.5" width="45" height="45" rx="9.5" fill="#BE93E4"/>
<rect x="92.5" y="142.5" width="45" height="45" rx="9.5" stroke="#FCFCFD" stroke-width="3"/>
<rect x="140.5" y="142.5" width="45" height="45" rx="9.5" fill="#8E4EC6"/>
<rect x="140.5" y="142.5" width="45" height="45" rx="9.5" stroke="#FCFCFD" stroke-width="3"/>
<rect x="188.5" y="142.5" width="45" height="45" rx="9.5" fill="#8347B9"/>
<rect x="188.5" y="142.5" width="45" height="45" rx="9.5" stroke="#FCFCFD" stroke-width="3"/>
<rect x="236.5" y="142.5" width="45" height="45" rx="9.5" fill="#8145B5"/>
<rect x="236.5" y="142.5" width="45" height="45" rx="9.5" stroke="#FCFCFD" stroke-width="3"/>
<rect x="284.5" y="142.5" width="45" height="45" rx="9.5" fill="#572E7A"/>
<rect x="284.5" y="142.5" width="45" height="45" rx="9.5" stroke="#FCFCFD" stroke-width="3"/>
<rect x="-3.5" y="190.5" width="45" height="45" rx="9.5" fill="#FFC182"/>
<rect x="-3.5" y="190.5" width="45" height="45" rx="9.5" stroke="#FCFCFD" stroke-width="3"/>
<rect x="44.5" y="190.5" width="45" height="45" rx="9.5" fill="#F5AE73"/>
<rect x="44.5" y="190.5" width="45" height="45" rx="9.5" stroke="#FCFCFD" stroke-width="3"/>
<rect x="92.5" y="190.5" width="45" height="45" rx="9.5" fill="#EC9455"/>
<rect x="92.5" y="190.5" width="45" height="45" rx="9.5" stroke="#FCFCFD" stroke-width="3"/>
<rect x="140.5" y="190.5" width="45" height="45" rx="9.5" fill="#F76B15"/>
<rect x="140.5" y="190.5" width="45" height="45" rx="9.5" stroke="#FCFCFD" stroke-width="3"/>
<rect x="188.5" y="190.5" width="45" height="45" rx="9.5" fill="#EF5F00"/>
<rect x="188.5" y="190.5" width="45" height="45" rx="9.5" stroke="#FCFCFD" stroke-width="3"/>
<rect x="236.5" y="190.5" width="45" height="45" rx="9.5" fill="#CC4E00"/>
<rect x="236.5" y="190.5" width="45" height="45" rx="9.5" stroke="#FCFCFD" stroke-width="3"/>
<rect x="284.5" y="190.5" width="45" height="45" rx="9.5" fill="#8A3500"/>
<rect x="284.5" y="190.5" width="45" height="45" rx="9.5" stroke="#FCFCFD" stroke-width="3"/>
</g>
<rect width="326" height="240" fill="url(#paint0_radial_10834_1096)"/>
<rect width="326" height="240" fill="url(#paint1_linear_10834_1096)"/>
<rect x="142" y="96" width="42" height="42" rx="8" fill="#6E56CF"/>
<path d="M164.677 113.586C164.992 113.271 164.992 112.76 164.677 112.445C164.362 112.13 163.851 112.13 163.536 112.445L156.488 119.492C155.856 120.123 155.383 120.596 155.128 121.21C154.874 121.824 154.874 122.493 154.875 123.386L154.875 124.318C154.875 124.763 155.237 125.125 155.682 125.125L156.614 125.125C157.507 125.126 158.176 125.126 158.79 124.872C159.404 124.617 159.877 124.144 160.508 123.512L167.555 116.464C167.87 116.149 167.87 115.638 167.555 115.323C167.24 115.007 166.729 115.007 166.414 115.323L164.444 117.292C164.372 117.364 164.336 117.4 164.29 117.419C164.244 117.438 164.193 117.438 164.091 117.438H162.033C161.519 117.438 161.262 117.438 161.198 117.284C161.134 117.13 161.316 116.948 161.679 116.585L164.677 113.586Z" fill="#FAF8FF"/>
<path d="M165.413 109.11C165.099 108.797 164.59 108.797 164.277 109.11C163.963 109.424 163.963 109.932 164.277 110.246L169.754 115.723C170.068 116.037 170.576 116.037 170.89 115.723C171.203 115.41 171.203 114.901 170.89 114.587L170.121 113.819C170.066 113.764 170.067 113.674 170.122 113.619L170.146 113.595L170.182 113.559C170.382 113.359 170.533 113.208 170.645 113.051C171.21 112.257 171.21 111.192 170.645 110.398C170.533 110.241 170.382 110.09 170.182 109.89L170.11 109.818C169.91 109.618 169.759 109.467 169.602 109.355C168.808 108.79 167.743 108.79 166.949 109.355C166.792 109.467 166.641 109.618 166.441 109.818L166.405 109.854L166.381 109.878C166.326 109.933 166.236 109.934 166.181 109.879L165.413 109.11Z" fill="#FAF8FF"/>
</g>
<defs>
<radialGradient id="paint0_radial_10834_1096" cx="0" cy="0" r="1" gradientUnits="userSpaceOnUse" gradientTransform="translate(163 120) scale(313.5 219.738)">
<stop stop-color="#F9F9FB" stop-opacity="0"/>
<stop offset="0.791069" stop-color="#F9F9FB"/>
</radialGradient>
<linearGradient id="paint1_linear_10834_1096" x1="163" y1="-46" x2="163" y2="240" gradientUnits="userSpaceOnUse">
<stop stop-color="#F9F9FB" stop-opacity="0"/>
<stop offset="0.98" stop-color="#F9F9FB"/>
</linearGradient>
<clipPath id="clip0_10834_1096">
<rect width="326" height="240" fill="white"/>
</clipPath>
</defs>
</svg>
